min/mono/applepay.svg

<svg width="576" height="448" xmlns="http://www.w3.org/2000/svg">
  <path d="M302.2 187.4c0 17.2-10.5 27.1-29 27.1h-24.3v-54.2h24.4c18.4 0 28.9 9.8 28.9 27.1zm47.5 62.6c0 8.3 7.2 13.7 18.5 13.7 14.4 0 25.2-9.1 25.2-21.9v-7.7l-23.5 1.5c-13.3.9-20.2 5.8-20.2 14.4zM576 48v352c0 26.5-21.5 48-48 48H48c-26.5 0-48-21.5-48-48V48C0 21.5 21.5 0 48 0h480c26.5 0 48 21.5 48 48zM127.8 166.2c8.4.7 16.8-4.2 22.1-10.4 5.2-6.4 8.6-15 7.7-23.7-7.4.3-16.6 4.9-21.9 11.3-4.8 5.5-8.9 14.4-7.9 22.8zm60.6 74.5c-.2-.2-19.6-7.6-19.8-30-.2-18.7 15.3-27.7 16-28.2-8.8-13-22.4-14.4-27.1-14.7-12.2-.7-22.6 6.9-28.4 6.9-5.9 0-14.7-6.6-24.3-6.4-12.5.2-24.2 7.3-30.5 18.6-13.1 22.6-3.4 56 9.3 74.4 6.2 9.1 13.7 19.1 23.5 18.7 9.3-.4 13-6 24.2-6 11.3 0 14.5 6 24.3 5.9 10.2-.2 16.5-9.1 22.8-18.2 6.9-10.4 9.8-20.4 10-21zm135.4-53.4c0-26.6-18.5-44.8-44.9-44.8h-51.2v136.4h21.2v-46.6h29.3c26.8 0 45.6-18.4 45.6-45zm90 23.7c0-19.7-15.8-32.4-40-32.4-22.5 0-39.1 12.9-39.7 30.5h19.1c1.6-8.4 9.4-13.9 20-13.9 13 0 20.2 6 20.2 17.2v7.5l-26.4 1.6c-24.6 1.5-37.9 11.6-37.9 29.1 0 17.7 13.7 29.4 33.4 29.4 13.3 0 25.6-6.7 31.2-17.4h.4V279h19.6v-68h.1zM516 179.9h-21.5l-24.9 80.6h-.4l-24.9-80.6H422l35.9 99.3-1.9 6c-3.2 10.2-8.5 14.2-17.9 14.2-1.7 0-4.9-.2-6.2-.3v16.4c1.2.4 6.5.5 8.1.5 20.7 0 30.4-7.9 38.9-31.8L516 179.9z" fill="#393939" fill-rule="evenodd"/>
</svg>

<?xml version="1.0" encoding="UTF-8"?>
<svg width="576px" height="448px" viewBox="0 0 576 448" version="1.1" xmlns="http://www.w3.org/2000/svg" xmlns:xlink="http://www.w3.org/1999/xlink">
    <title>applepay</title>
    <g id="Page-1" stroke="none" stroke-width="1" fill="none" fill-rule="evenodd">
        <g id="applepay" fill="#393939">
            <path d="M302.2,187.4 C302.2,204.6 291.7,214.5 273.2,214.5 L248.9,214.5 L248.9,160.3 L273.3,160.3 C291.7,160.3 302.2,170.1 302.2,187.4 L302.2,187.4 Z M349.7,250 C349.7,258.3 356.9,263.7 368.2,263.7 C382.6,263.7 393.4,254.6 393.4,241.8 L393.4,234.1 L369.9,235.6 C356.6,236.5 349.7,241.4 349.7,250 Z M576,48 L576,400 C576,426.5 554.5,448 528,448 L48,448 C21.5,448 0,426.5 0,400 L0,48 C0,21.5 21.5,0 48,0 L528,0 C554.5,0 576,21.5 576,48 Z M127.8,166.2 C136.2,166.9 144.6,162 149.9,155.8 C155.1,149.4 158.5,140.8 157.6,132.1 C150.2,132.4 141,137 135.7,143.4 C130.9,148.9 126.8,157.8 127.8,166.2 L127.8,166.2 Z M188.4,240.7 C188.2,240.5 168.8,233.1 168.6,210.7 C168.4,192 183.9,183 184.6,182.5 C175.8,169.5 162.2,168.1 157.5,167.8 C145.3,167.1 134.9,174.7 129.1,174.7 C123.2,174.7 114.4,168.1 104.8,168.3 C92.3,168.5 80.6,175.6 74.3,186.9 C61.2,209.5 70.9,242.9 83.6,261.3 C89.8,270.4 97.3,280.4 107.1,280 C116.4,279.6 120.1,274 131.3,274 C142.6,274 145.8,280 155.6,279.9 C165.8,279.7 172.1,270.8 178.4,261.7 C185.3,251.3 188.2,241.3 188.4,240.7 Z M323.8,187.3 C323.8,160.7 305.3,142.5 278.9,142.5 L227.7,142.5 L227.7,278.9 L248.9,278.9 L248.9,232.3 L278.2,232.3 C305,232.3 323.8,213.9 323.8,187.3 L323.8,187.3 Z M413.8,211 C413.8,191.3 398,178.6 373.8,178.6 C351.3,178.6 334.7,191.5 334.1,209.1 L353.2,209.1 C354.8,200.7 362.6,195.2 373.2,195.2 C386.2,195.2 393.4,201.2 393.4,212.4 L393.4,219.9 L367,221.5 C342.4,223 329.1,233.1 329.1,250.6 C329.1,268.3 342.8,280 362.5,280 C375.8,280 388.1,273.3 393.7,262.6 L394.1,262.6 L394.1,279 L413.7,279 L413.7,211 L413.8,211 Z M516,179.9 L494.5,179.9 L469.6,260.5 L469.2,260.5 L444.3,179.9 L422,179.9 L457.9,279.2 L456,285.2 C452.8,295.4 447.5,299.4 438.1,299.4 C436.4,299.4 433.2,299.2 431.9,299.1 L431.9,315.5 C433.1,315.9 438.4,316 440,316 C460.7,316 470.4,308.1 478.9,284.2 L516,179.9 Z" id="Shape"></path>
        </g>
    </g>
</svg>
